svgs/thin/bells.svg

<svg xmlns="http://www.w3.org/2000/svg" viewBox="0 0 640 512"><!--! Font Awesome Pro 6.1.1 by @fontawesome - https://fontawesome.com License - https://fontawesome.com/license (Commercial License) Copyright 2022 Fonticons, Inc. --><path d="M282.6 40.08C287.4 41.82 292.1 43.82 296.5 46.04C291.4 49.42 286.5 53.05 281.8 56.91C280.3 56.28 278.7 55.68 277.1 55.1C216.8 33.14 149.1 64.21 127.9 124.5L113.2 164.5C97.8 206.5 69.26 242.5 31.81 267L23.63 272.4C18.57 275.7 15.81 281.6 16.5 287.6C17.19 293.6 21.22 298.7 26.9 300.8L255.9 384.1C255.1 388 254.2 391.9 253.1 395.8L251.9 399.7L21.4 315.8C10.03 311.7 1.976 301.5 .5931 289.5C-.7903 277.5 4.729 265.7 14.86 259L23.04 253.7C57.61 230.1 83.95 197.8 98.16 159L112.8 119C137.1 50.44 213.1 15.09 282.6 40.08V40.08zM279.6 285.8L260.8 234.6C234.7 163.3 271.4 84.41 342.8 58.43C414.1 32.46 493.2 69.21 519.3 140.5L538 191.7C552 229.9 577.8 262.7 611.6 285.3L625.4 294.5C635.4 301.2 640.8 312.1 639.4 324.9C637.9 336.9 629.9 346.1 618.6 351.1L321.1 459.4C309.8 463.5 297.1 460.9 288.3 452.7C279.5 444.5 276 432 279.3 420.5L283.9 404.6C295.1 365.6 293.6 323.1 279.6 285.8H279.6zM294.6 280.3C309.8 321.7 311.4 366.8 299.3 409.1L294.7 424.9C293.1 430.7 294.8 436.9 299.2 441C303.6 445.1 309.1 446.4 315.6 444.4L613.1 336.1C618.7 334 622.7 328.1 623.5 322.1C624.2 317 621.5 311.1 616.5 307.8L602.7 298.6C566.1 274.1 538.2 238.5 523 197.2L504.3 145.1C481.2 82.98 411.3 50.5 348.3 73.46C285.2 96.41 252.8 166.1 275.9 229.1L294.6 280.3zM440 443.7C443.4 440.8 448.4 441.1 451.3 444.4C462.1 456.9 480 461.8 496.2 455.4C512.4 449.1 522.1 433.3 521.5 416.8C521.4 412.4 524.8 408.7 529.2 408.5C533.7 408.4 537.4 411.8 537.5 416.2C538.3 439.3 524.8 461.4 502.1 470.3C479.4 479.3 454.4 472.3 439.2 454.9C436.3 451.6 436.7 446.5 440 443.6V443.7zM185.9 411.9C188.8 408.6 193.9 408.2 197.2 411.1C200.5 414 200.9 419.1 198 422.4C182.9 439.8 157.9 446.7 135.2 437.8C112.5 428.9 98.91 406.8 99.73 383.7C99.88 379.3 103.6 375.8 108 376C112.4 376.2 115.9 379.9 115.7 384.3C115.1 400.8 124.9 416.5 141.1 422.9C157.2 429.3 175.1 424.4 185.9 411.9V411.9z"/></svg>

<svg xmlns="http://www.w3.org/2000/svg" viewBox="0 0 640 512"><!--! Font Awesome Pro 6.4.2 by @fontawesome - https://fontawesome.com License - https://fontawesome.com/license (Commercial License) Copyright 2023 Fonticons, Inc. --><path d="M282.6 40.1c4.8 1.7 9.4 3.7 13.9 6c-5.1 3.4-10 7-14.7 10.9c-1.5-.6-3.1-1.2-4.7-1.8c-60.3-22-127.2 9.1-149.3 69.4l-14.7 40c-15.4 42-43.9 78-81.4 102.5l-8.2 5.4c-5.1 3.3-7.8 9.2-7.1 15.2s4.7 11.1 10.4 13.2l229 83.4c-.8 3.9-1.8 7.8-2.9 11.6l-1.1 3.9L21.4 315.8C10 311.7 2 301.5 .6 289.5s4.1-23.8 14.3-30.4l8.2-5.4C57.6 231 84 197.8 98.2 159l14.7-40C138 50.4 214 15.1 282.6 40.1zm5.7 412.6c-8.8-8.2-12.3-20.7-9-32.2l4.6-15.8c11.2-39 9.7-80.7-4.3-118.9l-18.8-51.2c-26.1-71.3 10.5-150.2 81.9-176.2s150.4 10.8 176.5 82.1L538 191.7c14 38.2 39.8 71 73.6 93.6l13.7 9.2c10 6.7 15.4 18.5 14 30.4s-9.5 22.1-20.8 26.2L321.1 459.4c-11.3 4.1-24 1.5-32.8-6.7zm6.3-172.4c15.2 41.4 16.8 86.5 4.6 128.8l-4.6 15.8c-1.7 5.8 .1 12 4.5 16.1s10.8 5.4 16.4 3.3L613.1 336.1c5.7-2.1 9.7-7.1 10.4-13.1s-2-11.8-7-15.2l-13.7-9.2c-36.6-24.5-64.6-60.1-79.7-101.4L504.3 146c-23.1-63-92.9-95.5-156-72.5s-95.5 92.6-72.4 155.7l18.8 51.2zM440 443.7c3.3-2.9 8.4-2.5 11.3 .8c10.8 12.5 28.7 17.4 44.9 11s25.9-22.2 25.3-38.6c-.2-4.4 3.3-8.1 7.7-8.3s8.1 3.3 8.3 7.7c.8 23-12.8 45.1-35.5 54.1s-47.7 2-62.8-15.4c-2.9-3.3-2.5-8.4 .8-11.3zM185.9 411.9c2.9-3.3 7.9-3.7 11.3-.8s3.7 7.9 .8 11.3c-15.1 17.4-40.1 24.3-62.8 15.4s-36.3-31-35.5-54.1c.2-4.4 3.9-7.9 8.3-7.7s7.9 3.9 7.7 8.3c-.6 16.5 9.1 32.3 25.3 38.6s34.1 1.5 44.9-11z"/></svg>
